X: 1
T: Mr. Gibson
M: 4/4
L: 1/8
R: reel
K: Gmin
|:DGG^F GABG|FGAB cAFA|DGG^F GABc|dcBA BGGB:|
(3BBB dB fBdB|cdcB AFGA|(3BBB dB fBdB|dgg^f (3ggg ga|
bag^f gdde|fdcB AFFA|DGG^F GABc|dcBA BG G2||
